X: 42
T: Miss Michelle MacIsaac's Fling
C:Phil Cunningham
M:C
L:1/8
K:D
f3/A/ (3AAA f3/e/g3/f/| e3/d/B3/A/ G3/A/B/G3/|
f3/A/ (3AAA f3/e/g3/f/| a3/A/A3/B/ d2 d3/e/|
f3/A/ (3AAA f3/e/g3/f/| e3/d/B3/A/ G3/A/B/g3/|
f3/A/ (3AAA f3/e/g3/f/| a3/A/A3/B/ d2 d2 ||
e2 f3/g/ f/a3/g3/f/| g3/f/e3/d/ f2 d2|
e2 f3/g/ f/a3/g3/f/| e3/d/B/A3/ f2 d2|
e2 f3/g/ f/a3/g3/f/| g3/f/e3/d/| f2 A/A3/|
B3/A/ (3AAA B3/c/d3/B/| A3/B/d/a3/ f2 e2 ||

%%sep 2 1 500

